src/assets/icons/filters/categories/gamepad.svg

<svg width="48" height="42" viewBox="0 0 48 42" fill="none" xmlns="http://www.w3.org/2000/svg">
<path fill-rule="evenodd" clip-rule="evenodd" d="M24 0C9.42129 0 0 7.90385 0 20.1374C0 28.1902 3.85317 36.5267 9.58903 40.8799C10.5262 41.614 11.6843 42.0091 12.8747 42.0008C14.7982 41.9992 16.7404 41.0728 18.5291 40.2184C20.3443 39.3515 22.2208 38.4549 24 38.4549C25.7808 38.4549 27.6572 39.3515 29.4709 40.2184C32.2958 41.5666 35.4952 43.095 38.4125 40.8799C44.15 36.5251 48 28.1886 48 20.1374C48 7.90385 38.5803 0 24 0" fill="#CFD8DC"/>
<path fill-rule="evenodd" clip-rule="evenodd" d="M36.5879 38.5191C35.2052 39.571 33.4777 38.8295 30.7736 37.5394C29.8579 37.0882 28.9233 36.6766 27.9723 36.3057C27.8782 36.2226 27.7905 36.1332 27.6729 36.0737L21.6721 33.0999C21.3168 32.9228 20.9058 32.8933 20.5288 33.0178C20.1518 33.1423 19.8393 33.4107 19.6593 33.7646C19.5718 33.9393 19.5197 34.1295 19.506 34.3244C19.4922 34.5192 19.5172 34.7149 19.5794 34.9001C19.6416 35.0853 19.7399 35.2563 19.8685 35.4034C19.997 35.5505 20.1535 35.6706 20.3287 35.757L20.8538 36.0172C19.5715 36.4248 18.3551 36.997 17.2264 37.5378C14.5207 38.8295 12.7948 39.5663 11.4106 38.5176C6.37858 34.6973 2.99726 27.3092 2.99726 20.1359C2.99726 7.4806 13.8451 2.97061 23.9984 2.97061C34.1502 2.97061 44.9996 7.4806 44.9996 20.1359C44.9996 27.3108 41.6183 34.6989 36.5863 38.5176L36.5879 38.5191ZM24 0C38.5803 0 48 7.90385 48 20.1374C48 28.1886 44.1484 36.5251 38.4125 40.8799C35.4952 43.095 32.2958 41.5666 29.4725 40.2184C27.6572 39.3515 25.7808 38.4549 24 38.4549C22.2208 38.4549 20.3443 39.3515 18.5291 40.2184C16.7404 41.0728 14.7982 41.9992 12.8747 42.0008C11.7617 42.0008 10.6566 41.692 9.58903 40.8799C3.8516 36.5267 0 28.1902 0 20.1374C0 7.90385 9.42129 0 24 0V0ZM16.5006 18.0745H14.9988V16.5884C14.9968 16.1924 14.8376 15.8135 14.5563 15.5349C14.275 15.2562 13.8946 15.1006 13.4986 15.1023C13.1027 15.1006 12.7223 15.2562 12.441 15.5349C12.1597 15.8135 12.0005 16.1924 11.9984 16.5884V18.076H10.4982C10.1023 18.0744 9.72188 18.2299 9.44058 18.5086C9.15929 18.7872 9.00012 19.1662 8.99804 19.5621C8.99804 20.3835 9.67211 21.0482 10.4982 21.0482H11.9984V22.5359C11.9984 23.3557 12.6709 24.0219 13.4986 24.0219C13.8946 24.0236 14.275 23.868 14.5563 23.5894C14.8376 23.3107 14.9968 22.9318 14.9988 22.5359V21.0482H16.499C16.895 21.0499 17.2754 20.8943 17.5567 20.6156C17.838 20.337 17.9971 19.9581 17.9992 19.5621C17.9971 19.1662 17.838 18.7872 17.5567 18.5086C17.2754 18.2299 16.895 18.0744 16.499 18.076L16.5006 18.0745ZM31.9352 22.9654C31.6618 23.2498 31.5066 23.6275 31.501 24.0219C31.501 24.4091 31.6656 24.7948 31.9352 25.0785C32.2205 25.345 32.6108 25.5096 33.0012 25.5096C33.3915 25.5096 33.7803 25.345 34.0671 25.0785C34.3406 24.7941 34.4958 24.4164 34.5014 24.0219C34.4949 23.6278 34.3392 23.2507 34.0656 22.9669C33.5106 22.4167 32.4901 22.4167 31.9352 22.9669V22.9654ZM27.4362 18.5071C27.1626 18.7909 27.0068 19.168 27.0004 19.5621C27.0004 19.9634 27.165 20.3349 27.4362 20.6171C27.7215 20.8852 28.1103 21.0482 28.5022 21.0482C28.8989 21.0454 29.2797 20.8912 29.5666 20.6171C29.842 20.3347 29.9976 19.9566 30.0008 19.5621C29.9948 19.1682 29.8396 18.7912 29.5666 18.5071C29.0101 17.9569 27.9911 17.9569 27.4346 18.5071H27.4362ZM36.4358 18.5071C36.1628 18.7912 36.0076 19.1682 36.0016 19.5621C36.0016 19.9634 36.1662 20.3349 36.4358 20.6171C36.7211 20.8852 37.1099 21.0482 37.5018 21.0482C37.8905 21.0482 38.2809 20.8852 38.5662 20.6171C38.8416 20.3347 38.9972 19.9566 39.0004 19.5621C38.9944 19.1682 38.8392 18.7912 38.5662 18.5071C38.0112 17.9569 36.9907 17.9569 36.4358 18.5071V18.5071ZM31.9368 14.0473C31.6632 14.3311 31.5074 14.7081 31.501 15.1023C31.501 15.4879 31.6656 15.8751 31.9352 16.1573C32.2205 16.4253 32.6108 16.5884 33.0012 16.5884C33.3915 16.5884 33.7803 16.4253 34.0671 16.1573C34.3402 15.8732 34.4954 15.4962 34.5014 15.1023C34.4949 14.7081 34.3392 14.3311 34.0656 14.0473C33.5106 13.4971 32.5058 13.4971 31.9352 14.0473H31.9368Z" fill="#253238"/>
</svg>

<svg width="48" height="42" viewBox="0 0 48 42" fill="none" xmlns="http://www.w3.org/2000/svg"><path fill-rule="evenodd" clip-rule="evenodd" d="M24 0C9.421 0 0 7.904 0 20.137c0 8.053 3.853 16.39 9.589 20.743A5.269 5.269 0 0012.875 42c1.923 0 3.865-.927 5.654-1.782 1.815-.867 3.692-1.763 5.471-1.763 1.78 0 3.657.897 5.47 1.763 2.826 1.349 6.025 2.877 8.943.662C44.15 36.525 48 28.189 48 20.137 48 7.904 38.58 0 24 0" fill="#CFD8DC"/><path fill-rule="evenodd" clip-rule="evenodd" d="M36.588 38.52c-1.383 1.051-3.11.31-5.814-.98a35.62 35.62 0 00-2.802-1.234c-.094-.083-.181-.173-.3-.232l-6-2.974a1.505 1.505 0 00-2.013.665 1.482 1.482 0 00.67 1.992l.525.26c-1.282.408-2.499.98-3.628 1.52-2.705 1.293-4.431 2.03-5.815.98-5.032-3.82-8.414-11.208-8.414-18.381C2.997 7.48 13.845 2.97 23.998 2.97 34.15 2.97 45 7.48 45 20.136c0 7.175-3.382 14.563-8.414 18.382l.002.001zM24 0c14.58 0 24 7.904 24 20.137 0 8.052-3.852 16.388-9.587 20.743-2.918 2.215-6.117.687-8.94-.662-1.816-.867-3.692-1.763-5.473-1.763-1.78 0-3.656.897-5.47 1.763-1.79.855-3.732 1.781-5.655 1.783-1.113 0-2.218-.309-3.286-1.121C3.852 36.527 0 28.19 0 20.137 0 7.904 9.421 0 24 0zm-7.5 18.075H15v-1.487a1.493 1.493 0 00-1.5-1.486 1.494 1.494 0 00-1.5 1.486v1.488h-1.5a1.494 1.494 0 00-1.501 1.486c0 .822.674 1.486 1.5 1.486h1.5v1.488c0 .82.673 1.486 1.5 1.486a1.494 1.494 0 001.5-1.486v-1.488H16.5a1.494 1.494 0 001.5-1.486 1.494 1.494 0 00-1.5-1.486l.002-.002zm15.435 4.89a1.556 1.556 0 00-.434 1.057c0 .387.165.773.434 1.056.286.267.676.432 1.066.432s.78-.165 1.066-.432c.274-.284.429-.662.434-1.056a1.557 1.557 0 00-.435-1.055c-.555-.55-1.576-.55-2.13 0v-.002zm-4.499-4.458c-.273.284-.43.661-.436 1.055 0 .401.165.773.436 1.055.285.268.674.431 1.066.431a1.557 1.557 0 001.065-.43c.275-.283.43-.661.434-1.056a1.557 1.557 0 00-.434-1.055c-.557-.55-1.576-.55-2.132 0h.001zm9 0a1.557 1.557 0 00-.434 1.055c0 .401.164.773.434 1.055.285.268.674.431 1.066.431.389 0 .779-.163 1.064-.43.276-.283.431-.661.434-1.056a1.557 1.557 0 00-.434-1.055c-.555-.55-1.575-.55-2.13 0zm-4.5-4.46c-.273.284-.429.661-.435 1.055 0 .386.165.773.434 1.055.286.268.676.431 1.066.431s.78-.163 1.066-.43c.273-.285.428-.662.434-1.056a1.557 1.557 0 00-.435-1.055c-.555-.55-1.56-.55-2.13 0z" fill="#253238"/></svg>
